X:1
T:LoFi Nocturne
M:4/4
L:1/8
K:Dm
A2|d2 c2 B2 A2|G2 F2 E2 D2|c2 B2 A2 G2|F2 G2 A2 d2|
c2 B2 A2 d2|c2 B2 A2 G2|F2 E2 D2 C2|D4 z2|